!!!!SEGMENT: pl-wnifc--13846--016_anonim--piesni-polskie-i-ruskie-ludu-galicyjskiego-16-me-ne-maly-porodyla.krn
!!!kernsource:
!!!cenid: 18xx:3238
!!!COM: Anonim
!!!COM-rismID: pe30004985
!!!CDT:
!!!CNT:
!!!GTL: Pieśni polskie i ruskie ludu galicyjskiego
!!!OTL: 16. Me ne maly porodyła
!!!PDT: 1833
!!!AGN:
!!!SMS-siglum: PL-Wnifc
!!!SMS-shelfmark: 13846
!!!SMS-shelfwork: 016 G
!!!NIFC-rismSourceID: 1001036742
!!!NIFC-rismChildID: 1001036742
!!!NIFC-islandoraID:
!!!URL-pdf-islandora:
!!!URL-scan:
!!!ONB-nifc:
!!!AIN: 1 piano 1 vox
!!!key: c
!!!OMD: Andante.
**kern	**kern	**dynam	**kern	**text
*part2	*part2	*part2	*part1	*part1
*staff3	*staff2	*	*staff1	*staff1
*I"FORTEPIAN.	*I"FORTEPIAN.	*	*I"GŁOS.	*
*Ipiano	*Ipiano	*	*Ivox	*
*ICklav	*ICklav	*	*ICvox	*
*IGacmp	*IGacmp	*	*IGsolo	*
*I"Piano	*	*	*I"Soprano	*
*clefF4	*clefG2	*	*clefG2	*
*k[b-e-a-]	*k[b-e-a-]	*	*k[b-e-a-]	*
*c:	*c:	*	*c:	*
*M2/4	*M2/4	*	*M2/4	*
=1	=1	=1	=1	=1
!	!	!	!LO:TX:a:t=C.d.71.	!
4C/ 4CC/^	16r	.	16ee-\	Me.
.	(16c/LL 16G</	.	8.ee-\	ne
.	16g/ 16e-/	.	.	.
.	16c/JJ)	.	.	.
4C/ 4CC/^	16r	.	16cc\	ma-
.	(16c/LL 16G</	.	8.ee-\	-ty
.	16g/ 16e-/	.	.	.
.	16c/JJ)	.	.	.
=2	=2	=2	=2	=2
4GG/ 4GGG/^	16r	.	8.dd\	po-
.	(<16G</LL	.	.	.
.	16g/ 16Bn/	.	.	.
.	16d/JJ)	.	16bn\	-ro-
4GG/ 4GGG/^	16r	.	8g/	-dy-
.	(<16G</LL	.	.	.
.	16g/ 16B/	.	8g/	-ła
.	16c/JJ)	.	.	.
!!LO:PB:g=original
=3	=3	=3	=3	=3
4C/ 4CC/^	16r	.	16ee-\	te
.	16c/|LL	.	8.ee-\	mneń-
.	(16cc/ 16e-/	.	.	.
.	16c/JJ)	.	.	.
4AA-/ 4AAA-/^	16r	.	8ff\	-ko-
.	16f/LL 16c/|	.	.	.
.	(16cc/ 16f#X/	.	8ff#X\	-ji
.	16c/JJ)	.	.	.
=4	=4	=4	=4	=4
2GG/ 2GGG/^	16Bn\|LL	.	4gg\	no-
!	!	!LO:HP:a	!	!
.	(16g\	<	.	.
.	16dd\	.	.	.
!	!	!LO:HP:a	!	!
.	16bn\JJ)	[ >	.	.
.	16g/LL	.	4g/	-czy
.	16d/	.	.	.
.	16B/	.	.	.
.	16G</JJ	]	.	.
=5	=5	=5	=5	=5
4C/ 4CC/	16r	.	8.ee-\^	da-
.	16G</LL	.	.	.
.	16g/ 16e-/ 16c/	.	.	.
.	16c/JJ	.	16dd\|	-ła
4C/ 4CC/	16r	.	16cc\|	me-
.	16G</LL	.	8.ee-\^	-ni
.	16g/ 16e-/	.	.	.
.	16c/JJ	.	.	.
!!LO:LB:g=original
=6	=6	=6	=6	=6
4GG/ 4GGG/	16r	.	8.dd\	stan
.	16G</LL	.	.	.
.	(16g/ 16f/	.	.	.
!	!	!	!LO:N:vis=8	!
.	16d/JJ)	.	16bn\	wo-
4GG/ 4GGG/	16r	.	(16b\LL	-jac-
.	16G</LL	.	16g/JJ)	.
.	16g/ 16f/	.	8g/	-ki
.	16d/JJ	.	.	.
=7	=7	=7	=7	=7
2GG/ 2GGG/	4.g/ 4.d/ 4.Bn/	.	8a-X/	i
.	.	.	(16a-/LL	czor-
.	.	.	16g/JJ)	.
.	.	.	8g/	-ny-
.	8a-/ 8f/ 8d/	.	8bn/	-ji
=8	=8	=8	=8	=8
*	*^	*	*	*
4C/ 4CC/	16g/LL 16e-/	16c\	.	4cc\	o-
.	(N[16e-/	16ryy	.	.	.
.	16cc/	8ryy	.	.	.
.	16g/JJ	.	.	.	.
4r	16e-/LLN]	4ryy	.	8cc\	-czy.
.	16c/	.	.	.	.
.	16G</	.	.	8r	.
.	16E-</JJ)	.	.	.	.
*	*v	*v	*	*	*
==	==	==	==	==
*-	*-	*-	*-	*-
!!!system-decoration: s1{(s2,s3)}
!!!RDF**kern: < = below
!!!RDF**kern: | = vertical stroke
!!!RDF**kern: N = linked
!!!ENC: Marta Lawrence
!!!END: 2021-11-10
!!!YEC: Copyright 2022 Narodowy Instytut Fryderyka Chopina (https://polishscores.org)
!!!YEM: License CC-BY-4.0 (https://creativecommons.org/licenses/by/4.0)
